X:1
T:Edengrove, 76.76 D
T:Edengrove, 76.76 D
T:Samuel Smith, 1874
T:Public Domain Courtesy of the Cyber Hymnal™
C:Samuel Smith, 1874
Z:Public Domain
Z:Courtesy of the Cyber Hymnal™
%%score ( 1 2 ) ( 3 4 )
L:1/8
Q:1/4=110
M:4/4
K:Eb
V:1 treble 
V:2 treble 
V:3 bass 
V:4 bass 
V:1
 [EG][DA] | [EB]2 [Ee]2 [Ee]2 [Ed]2 | [Ed]2 [Ec]4 [EB]2 | [EA]3 [EG] [DA]2 [DB]2 | [EG]6 [EG]2 | %5
 [DG]2 [DF]2 E2 [EB]2 | [DB]2 [DA]4 [EG]2 | [CF]2 C2 [CD]2 [=A,E]2 x | [B,D]6 [DF]2 | %9
 [CF]3 [CF] [CF]2 [=EG]2 | [FA]2 [FA]4 [FA]2 | [CE]3 [CE] E2 [CF]2 | [DG]6 [DA]2 | %13
 [EG]2 [EB]2 [Ee]2 [Ed]2 | [Ed]2 [Ec]4 [=EB]2 | [FA]2 C2 [B,D]2 [B,F]2 | [B,E]6 |] %17
V:2
 x2 | x8 | x8 | x8 | x8 | x4 E2 x2 | x8 | x2 C2 x5 | x8 | x8 | x8 | x4 E2 x2 | x8 | x8 | x8 | %15
 x2 C2 x4 | x6 |] %17
V:3
 [E,B,][F,B,] | [G,B,]2 [E,G,]2 [F,A,]2 [G,B,]2 | A,2 A,4 [G,B,]2 | %3
 [F,C]3 [F,C] [B,,B,]2 [B,,B,]2 | [E,B,]6 [E,B,]2 | B,2 [A,B,]2 [G,B,]2 [G,B,]2 | %6
 [F,B,]2 [F,B,]4 [E,B,]2 | A,3 z G, [=A,,F,]2 [F,,F,]2 | [B,,F,]6 B,2 | %9
 [A,C]3 [A,C] [A,C]2 [G,C]2 | [F,C]2 [F,C]4 [F,C]2 | [A,C]3 [A,C] [A,C]2 [A,C]2 | %12
 [G,=B,]6 [F,_B,]2 | [E,B,]2 [E,G,]2 [G,,B,]2 [G,,B,]2 | [A,,B,]2 [A,,A,]4 [C,G,]2 | %15
 [F,,F,]2 [A,,F,]2 [B,,A,]2 [B,,A,]2 | [E,G,]6 |] %17
V:4
 x2 | x8 | A,2 A,4 x2 | x8 | x8 | B,2 x6 | x8 | =A,,2 A,,2 x5 | x6 B,2 | x8 | x8 | x8 | x8 | x8 | %14
 x8 | x8 | x6 |] %17

